svg/furkot/material-design/alternative.svg

<svg viewBox="0 0 512 512" xmlns="http://www.w3.org/2000/svg"><path d="m320 0 73.6 73.6-92.8 92.8 44.8 44.8 92.8-92.8 73.6 73.6v-192zm-128 0h-192v192l73.6-73.6 150.4 150.4v243.2h64v-268.8l-169.6-169.6z"/></svg>

<svg xmlns="http://www.w3.org/2000/svg" viewBox="0 0 512 512"><path d="M320 0L393.6 73.6 300.8 166.4 345.6 211.2 438.4 118.4 512 192 512 0ZM192 0L0 0 0 192 73.6 118.4 224 268.8 224 512 288 512 288 243.2 118.4 73.6Z"/></svg>
